packages/kronos-fna-icons/src/delete.svg

<?xml version="1.0" encoding="UTF-8"?>
<svg width="20px" height="20px" viewBox="0 0 20 20" version="1.1" xmlns="http://www.w3.org/2000/svg" xmlns:xlink="http://www.w3.org/1999/xlink">
    <!-- Generator: Sketch 50.2 (55047) - http://www.bohemiancoding.com/sketch -->
    <title>delete</title>
    <desc>Created with Sketch.</desc>
    <defs></defs>
    <g id="delete" stroke="none" stroke-width="1" fill="none" fill-rule="evenodd">
        <path d="M19.8174211,16.0674512 L19.8174211,16.0674512 L13.7499699,10 L19.8174211,3.93254876 L19.8174211,3.93254876 C19.8824206,3.86754928 19.9299202,3.79129989 19.95992,3.71005054 C20.0424193,3.48755233 19.9949197,3.22755442 19.8174211,3.04880586 L16.9511941,0.18257889 C16.7724456,0.00383032636 16.5124477,-0.0436692919 16.2899495,0.0400800351 C16.2087001,0.070079794 16.1324507,0.117579412 16.0674512,0.18257889 L16.0674512,0.18257889 L10,6.25003013 L3.93254876,0.18257889 L3.93254876,0.18257889 C3.86754928,0.117579412 3.79129989,0.070079794 3.71005054,0.0400800351 C3.48755233,-0.042419302 3.22755442,0.00383032636 3.04880586,0.18257889 L0.18257889,3.04880586 C0.00383032636,3.22755442 -0.0436692919,3.48755233 0.0400800351,3.71005054 C0.070079794,3.79129989 0.117579412,3.86754928 0.18257889,3.93254876 L0.18257889,3.93254876 L6.25003013,10 L0.18257889,16.0674512 L0.18257889,16.0674512 C0.117579412,16.1324507 0.070079794,16.2087001 0.0400800351,16.2899495 C-0.042419302,16.5124477 0.00383032636,16.7724456 0.18257889,16.9511941 L3.04880586,19.8174211 C3.22755442,19.9961697 3.48755233,20.0436693 3.71005054,19.95992 C3.79129989,19.9299202 3.86754928,19.8824206 3.93254876,19.8174211 L3.93254876,19.8174211 L10,13.7499699 L16.0674512,19.8174211 L16.0674512,19.8174211 C16.1324507,19.8824206 16.2087001,19.9299202 16.2899495,19.95992 C16.5124477,20.0424193 16.7724456,19.9961697 16.9511941,19.8174211 L19.8174211,16.9511941 C19.9961697,16.7724456 20.0436693,16.5124477 19.95992,16.2899495 C19.9299202,16.2087001 19.8824206,16.1324507 19.8174211,16.0674512 L19.8174211,16.0674512 Z" id="Shape-3-Copy-2" fill="#000000"></path>
    </g>
</svg>

<svg version="1.1" xmlns="http://www.w3.org/2000/svg" width="20" height="20" viewBox="0 0 20 20">
<title>delete</title>
<path d="M19.817 16.067v0l-6.067-6.067 6.067-6.067c0.065-0.065 0.113-0.141 0.143-0.223 0.082-0.222 0.035-0.482-0.143-0.661l-2.866-2.866c-0.179-0.179-0.439-0.226-0.661-0.143-0.081 0.030-0.157 0.077-0.223 0.143v0l-6.067 6.067-6.067-6.067c-0.065-0.065-0.141-0.112-0.223-0.143-0.222-0.083-0.482-0.036-0.661 0.143l-2.866 2.866c-0.179 0.179-0.226 0.439-0.143 0.661 0.030 0.081 0.077 0.158 0.143 0.223v0l6.067 6.067-6.067 6.067c-0.065 0.065-0.112 0.141-0.143 0.223-0.083 0.223-0.036 0.482 0.143 0.661l2.866 2.866c0.179 0.179 0.439 0.226 0.661 0.143 0.081-0.030 0.158-0.078 0.223-0.143v0l6.067-6.067 6.067 6.067c0.065 0.065 0.141 0.113 0.223 0.143 0.223 0.082 0.482 0.036 0.661-0.143l2.866-2.866c0.179-0.179 0.226-0.439 0.143-0.661-0.030-0.081-0.078-0.157-0.143-0.223v0z"></path>
</svg>
